X:1
T:Title
%%score { ( 1 3 ) | 2 }
L:1/8
Q:1/4=100
M:4/4
K:C
V:1 treble nm="Grand Piano"
V:3 treble 
V:2 bass 
V:1
 [Ec]2 [EB]2 [EA]3 [CE] | [EG]2 [_E^F]2 [D=F]4 | B2 c2 d3 B | A2 G2 [Ec]4 | z2 [Fd]2 z4 | %5
w: C.~Austin~Miles * * *|||||
 d2 c2 A4 | G2 GG GGAB | [Ec]6 z2 | [EG]2 [EA][EB] [Ed]2 [Ec][EA] | B B2 _B =B4 | D2 EF B2 AB | %11
w: ||||||
 [EA][EG][EG][CE] [EG]4 | [CE][DF][EG][FA] [EG]2 [Ec]2 | dAA^G A4 | ccBA G c2 c | c2 [DB]2 [Ec]4 |] %16
w: |||||
V:2
 [C,G,]2 [C,G,]2 [C,G,]3 [C,G,] | [G,,G,]2 [G,,G,]2 [G,,G,]4 | [G,DF]2 [G,CF]2 [G,B,F]3 [G,DF] | %3
 [G,CF]2 [G,B,F]2[K:bass] [C,G,]4 | [C,G,]2 .[C,A,]2 [C,C]3 [C,C] | [F,A,F]2 [F,A,F]2 [F,CF]4 | %6
 [G,CE]2 [G,CE][G,CE] [G,B,F][G,B,F][G,CF][G,DF] | [C,C]6 z2 | %8
 [C,C]2 [C,G,][C,G,] [C,G,]2 [C,G,][C,C] | [G,DF] [G,DF]2 [G,^CF] [G,DF]4 | %10
 [G,B,]2 [G,B,D][G,B,D] [G,DF]2 [G,DF][G,DF] | [C,C][C,C][C,C][C,G,] [C,C]4 | %12
 [C,G,][C,G,][C,C][C,C] [C,C]2 [C,G,]2 | [F,A,F][F,CF][F,CF][F,B,F] [F,CF]4 | %14
 [F,A,D][F,A,D][F,B,D][F,CD] [G,CE] [G,CE]2 [G,B,E] | [G,E]2 [G,,G,]2 [C,G,]4 |] %16
V:3
 x8 | x8 | x8 | x8 | [Ee]2 z B, [Ec]3 [EB] | x8 | x8 | x8 | x8 | x8 | x8 | x8 | x8 | x8 | x8 | %15
 x8 |] %16

